brandFactory_export/3.Masa/Autobus_3Masa.svg

<?xml version="1.0" encoding="UTF-8"?>
<svg width="24px" height="24px" viewBox="0 0 24 24" version="1.1" xmlns="http://www.w3.org/2000/svg" xmlns:xlink="http://www.w3.org/1999/xlink">
    <title>3.Masa/Autobus_3Masa</title>
    <g id="Symbols" stroke="none" stroke-width="1" fill="none" fill-rule="evenodd">
        <g id="3.Masa/Autobus_3Masa" fill="#5CB615" fill-rule="nonzero">
            <path d="M22.2117647,12.0621849 C19.6773109,9.63193277 15.6739496,9.78655462 15.4991597,9.79663866 L14.9411765,9.79663866 L14.9411765,4.48235294 L16.205042,4.48235294 C16.4504202,4.48235294 22.2117647,4.58655462 22.2117647,11.887395 L22.2117647,12.0621849 L22.2117647,12.0621849 Z M17.2504202,19.292437 C15.7378151,19.292437 14.9714286,18.5193277 14.9714286,16.9966387 C14.9714286,15.4739496 15.7378151,14.7008403 17.2504202,14.7008403 C18.7630252,14.7008403 19.5294118,15.4739496 19.5294118,16.9966387 C19.5294118,18.5193277 18.7630252,19.292437 17.2504202,19.292437 Z M8.23193277,9.79663866 L13.4991597,9.79663866 L13.4991597,4.48235294 L8.23193277,4.48235294 L8.23193277,9.79663866 Z M5.84201681,19.292437 C4.32941176,19.292437 3.56302521,18.5193277 3.56302521,16.9966387 C3.56302521,15.4739496 4.32941176,14.7008403 5.84201681,14.7008403 C7.35462185,14.7008403 8.1210084,15.4739496 8.1210084,16.9966387 C8.1210084,18.5193277 7.35462185,19.292437 5.84201681,19.292437 Z M1.4789916,9.79663866 L1.4789916,5.8 C1.4789916,5.4907563 1.63361345,5.15462185 1.88907563,4.89579832 C2.14789916,4.63361345 2.47731092,4.48235294 2.78655462,4.48235294 L6.78991597,4.48235294 L6.78991597,9.79663866 L1.4789916,9.79663866 Z M21.3109244,5.21176471 C19.1428571,3.03697479 16.302521,3.02689076 16.205042,3.0302521 L2.78319328,3.0302521 C2.09411765,3.0302521 1.39159664,3.33613445 0.863865546,3.86722689 C0.332773109,4.39831933 0.0302521008,5.10420168 0.0302521008,5.80336134 L0.0302521008,15.9478992 C0.0302521008,16.6436975 0.332773109,17.3495798 0.863865546,17.8806723 C1.2907563,18.3109244 1.82857143,18.5764706 2.43361345,18.6739496 C2.96806723,19.9815126 4.17142857,20.7478992 5.83865546,20.7478992 C7.48907563,20.7478992 8.6789916,19.994958 9.22352941,18.7176471 L13.8588235,18.7176471 C14.4033613,19.994958 15.5932773,20.7478992 17.2436975,20.7478992 C18.8941176,20.7478992 20.0840336,19.994958 20.6285714,18.7176471 L20.897479,18.7176471 C21.5865546,18.7176471 22.2890756,18.4117647 22.8168067,17.8773109 C23.3445378,17.3462185 23.6471542,16.6403361 23.6471542,15.9445378 L23.6471542,11.887395 C23.6571429,9.02016807 22.8672269,6.77478992 21.3109244,5.21176471 Z" id="Autobus_3Masa"></path>
        </g>
    </g>
</svg>

<svg width="24" height="24" viewBox="0 0 24 24" xmlns="http://www.w3.org/2000/svg"><path d="M22.212 12.062c-2.535-2.43-6.538-2.275-6.713-2.265h-.558V4.482h1.264c.245 0 6.007.105 6.007 7.405v.175zm-4.962 7.23c-1.512 0-2.279-.773-2.279-2.295 0-1.523.767-2.296 2.28-2.296 1.512 0 2.278.773 2.278 2.296 0 1.522-.766 2.295-2.279 2.295zM8.232 9.797h5.267V4.482H8.232v5.315zm-2.39 9.495c-1.513 0-2.279-.773-2.279-2.295 0-1.523.766-2.296 2.279-2.296s2.279.773 2.279 2.296c0 1.522-.766 2.295-2.279 2.295zM1.479 9.797V5.8c0-.31.155-.645.41-.904.259-.262.588-.414.898-.414H6.79v5.315H1.479zm19.832-4.585c-2.168-2.175-5.008-2.185-5.106-2.182H2.783c-.689 0-1.391.306-1.92.837C.334 4.398.03 5.104.03 5.803v10.145c0 .696.303 1.402.834 1.933.427.43.965.695 1.57.793.534 1.308 1.737 2.074 3.405 2.074 1.65 0 2.84-.753 3.385-2.03h4.635c.544 1.277 1.734 2.03 3.385 2.03 1.65 0 2.84-.753 3.385-2.03h.268c.69 0 1.392-.306 1.92-.84.528-.532.83-1.238.83-1.933v-4.058c.01-2.867-.78-5.112-2.336-6.675z" fill="#5CB615" fill-rule="nonzero"/></svg>
